X: 1
T: Saut du Lapin
T: Rabbit's Leap
O: Qu\'ebec
R: reel
Z: John Chambers <jc:trillian.mit.edu>
M: 4/4
L: 1/8
K: G
|: "G"BcBA GAGB | dz Bz "Am"A2z2 | ABcB ABcd |1 "D7"e2ef e2d2 :|2 "C"e2"D7"f2 "G"g4 :|
|: "G"{f}gdBc d2ef | gdBc d2dd | "D7"^cddd cddd |1 ^cddd edef :|2 "C"e2"D7"f2 "G"g4 :|
